P3
100 50
255
80 72 72 80 72 72 80 72 72 80 72 72 79 71 71 79 71 71 79 71 71 79 71
71 79 71 71 78 71 71 78 70 70 78 70 70 78 70 70 78 70 70 77 70 70 77
69 69 77 69 69 77 69 69 76 69 69 76 69 69 76 68 68 76 68 68 76 68 68
75 68 68 75 68 68 75 67 67 75 67 67 74 67 67 74 67 67 74 67 67 74 66
66 73 66 66 73 66 66 73 66 66 73 65 65 72 65 65 72 65 65 72 65 65 71
64 64 71 64 64 71 64 64 71 64 64 70 63 63 70 63 63 70 63 63 69 63 63
69 62 62 69 62 62 69 62 62 68 62 62 195 175 175 237 214 214 237 214
214 238 214 214 238 214 214 238 214 214 238 214 214 238 215 215 238
215 215 239 215 215 239 215 215 239 215 215 239 215 215 239 215 215
239 215 215 239 215 215 239 215 215 239 215 215 239 215 215 239 215
215 239 215 215 239 215 215 239 215 215 239 215 215 239 215 215 239
215 215 239 215 215 239 215 215 239 215 215 239 215 215 239 215 215
239 215 215 239 215 215 239 215 215 238 215 215 238 215 215 238 215
215 238 214 214 238 214 214 238 214 214 238 214 214 238 214 214 238
214 214 238 214 214 238 214 214 238 214 214 237 214 214 237 214 214
237 214 214 237 214 214
80 72 72 80 72 72 80 72 72 79 72 72 79 71 71 79 71 71 79 71 71 79 71
71 78 71 71 78 70 70 78 70 70 78 70 70 78 70 70 77 70 70 77 70 70 77
69 69 77 69 69 77 69 69 76 69 69 76 69 69 76 68 68 76 68 68 75 68 68
75 68 68 75 68 68 75 67 67 74 67 67 74 67 67 74 67 67 74 66 66 73 66
66 73 66 66 73 66 66 73 66 66 72 65 65 72 65 65 72 65 65 72 65 65 71
64 64 71 64 64 71 64 64 71 64 64 70 63 63 70 63 63 70 63 63 69 63 63
69 62 62 69 62 62 69 62 62 68 61 61 195 175 175 237 213 213 237 213
213 237 214 214 237 214 214 238 214 214 238 214 214 238 214 214 238
214 214 238 214 214 238 214 214 238 215 215 238 215 215 238 215 215
238 215 215 239 215 215 239 215 215 239 215 215 239 215 215 239 215
215 239 215 215 239 215 215 239 215 215 239 215 215 239 215 215 239
215 215 239 215 215 238 215 215 238 215 215 238 215 215 238 215 215
238 215 215 238 214 214 238 214 214 238 214 214 238 214 214 238 214
214 238 214 214 238 214 214 238 214 214 238 214 214 238 214 214 238
214 214 237 214 214 237 214 214 237 214 214 237 214 214 237 213 213
237 213 213 237 213 213
80 72 72 80 72 72 79 72 72 79 71 71 79 71 71 79 71 71 79 71 71 79 71
71 78 71 71 78 70 70 78 70 70 78 70 70 78 70 70 77 70 70 77 69 69 77
69 69 77 69 69 76 69 69 76 69 69 76 68 68 76 68 68 76 68 68 75 68 68
75 68 68 75 67 67 75 67 67 74 67 67 74 67 67 74 67 67 74 66 66 73 66
66 73 66 66 73 66 66 73 65 65 72 65 65 72 65 65 72 65 65 72 64 64 71
64 64 71 64 64 71 64 64 70 63 63 70 63 63 70 63 63 70 63 63 69 62 62
69 62 62 69 62 62 68 62 62 68 61 61 194 175 175 236 213 213 237 213
213 237 213 213 237 213 213 237 214 214 237 214 214 237 214 214 238
214 214 238 214 214 238 214 214 238 214 214 238 214 214 238 214 214
238 214 214 238 214 214 238 214 214 238 214 214 238 214 214 238 214
214 238 214 214 238 214 214 238 214 214 238 214 214 238 214 214 238
214 214 238 214 214 238 214 214 238 214 214 238 214 214 238 214 214
238 214 214 238 214 214 238 214 214 238 214 214 238 214 214 238 214
214 238 214 214 237 214 214 237 214 214 237 214 214 237 214 214 237
214 214 237 213 213 237 213 213 237 213 213 237 213 213 237 213 213
237 213 213 237 213 213
80 72 72 80 72 72 79 71 71 79 71 71 79 71 71 79 71 71 79 71 71 78 71
71 78 70 70 78 70 70 78 70 70 78 70 70 77 70 70 77 70 70 77 69 69 77
69 69 77 69 69 76 69 69 76 69 69 76 68 68 76 68 68 75 68 68 75 68 68
75 68 68 75 67 67 75 67 67 74 67 67 74 67 67 74 66 66 74 66 66 73 66
66 73 66 66 73 66 66 73 65 65 72 65 65 72 65 65 72 65 65 71 64 64 71
64 64 71 64 64 71 64 64 70 63 63 70 63 63 70 63 63 70 63 63 69 62 62
69 62 62 69 62 62 68 62 62 68 61 61 194 174 174 236 212 212 236 213
213 236 213 213 237 213 213 237 213 213 237 213 213 237 213 213 237
214 214 237 214 214 237 214 214 237 214 214 238 214 214 238 214 214
238 214 214 238 214 214 238 214 214 238 214 214 238 214 214 238 214
214 238 214 214 238 214 214 238 214 214 238 214 214 238 214 214 238
214 214 238 214 214 238 214 214 238 214 214 238 214 214 238 214 214
238 214 214 238 214 214 237 214 214 237 214 214 237 214 214 237 214
214 237 214 214 237 213 213 237 213 213 237 213 213 237 213 213 237
213 213 237 213 213 237 213 213 237 213 213 237 213 213 236 213 213
236 213 213 236 213 213
80 72 72 79 72 72 79 71 71 79 71 71 79 71 71 79 71 71 78 71 71 78 71
71 78 70 70 78 70 70 78 70 70 77 70 70 77 70 70 77 69 69 77 69 69 77
69 69 76 69 69 76 69 69 76 68 68 76 68 68 76 68 68 75 68 68 75 68 68
75 67 67 75 67 67 74 67 67 74 67 67 74 67 67 74 66 66 73 66 66 73 66
66 73 66 66 73 65 65 72 65 65 72 65 65 72 65 65 72 65 65 71 64 64 71
64 64 71 64 64 71 64 64 70 63 63 70 63 63 70 63 63 69 63 63 69 62 62
69 62 62 69 62 62 68 61 61 68 61 61 193 174 174 236 212 212 236 212
212 236 212 212 236 213 213 236 213 213 236 213 213 237 213 213 237
213 213 237 213 213 237 213 213 237 213 213 237 213 213 237 214 214
237 214 214 237 214 214 237 214 214 237 214 214 237 214 214 237 214
214 237 214 214 237 214 214 237 214 214 237 214 214 237 214 214 237
214 214 237 214 214 237 214 214 237 214 214 237 214 214 237 214 214
237 214 214 237 214 214 237 213 213 237 213 213 237 213 213 237 213
213 237 213 213 237 213 213 237 213 213 237 213 213 237 213 213 237
213 213 236 213 213 236 213 213 236 213 213 236 213 213 236 213 213
236 213 213 236 212 212
80 72 72 79 71 71 79 71 71 79 71 71 79 71 71 79 71 71 78 71 71 78 70
70 78 70 70 78 70 70 78 70 70 77 70 70 77 70 70 77 69 69 77 69 69 77
69 69 76 69 69 76 69 69 76 68 68 76 68 68 75 68 68 75 68 68 75 68 68
75 67 67 75 67 67 74 67 67 74 67 67 74 66 66 74 66 66 73 66 66 73 66
66 73 66 66 73 65 65 72 65 65 72 65 65 72 65 65 72 64 64 71 64 64 71
64 64 71 64 64 70 63 63 70 63 63 70 63 63 70 63 63 69 62 62 69 62 62
69 62 62 68 62 62 68 61 61 68 61 61 193 174 174 235 212 212 235 212
212 236 212 212 236 212 212 236 212 212 236 212 212 236 213 213 236
213 213 236 213 213 237 213 213 237 213 213 237 213 213 237 213 213
237 213 213 237 213 213 237 213 213 237 213 213 237 213 213 237 213
213 237 213 213 237 213 213 237 213 213 237 213 213 237 213 213 237
213 213 237 213 213 237 213 213 237 213 213 237 213 213 237 213 213
237 213 213 237 213 213 237 213 213 237 213 213 237 213 213 237 213
213 237 213 213 236 213 213 236 213 213 236 213 213 236 213 213 236
213 213 236 213 213 236 213 213 236 212 212 236 212 212 236 212 212
236 212 212 236 212 212
79 72 72 79 71 71 79 71 71 79 71 71 79 71 71 78 71 71 78 70 70 78 70
70 78 70 70 78 70 70 77 70 70 77 70 70 77 69 69 77 69 69 77 69 69 76
69 69 76 69 69 76 68 68 76 68 68 76 68 68 75 68 68 75 68 68 75 67 67
75 67 67 74 67 67 74 67 67 74 67 67 74 66 66 73 66 66 73 66 66 73 66
66 73 65 65 72 65 65 72 65 65 72 65 65 72 65 65 71 64 64 71 64 64 71
64 64 71 64 64 70 63 63 70 63 63 70 63 63 70 63 63 69 62 62 69 62 62
69 62 62 68 62 62 68 61 61 68 61 61 193 174 174 235 211 211 235 211
211 235 212 212 235 212 212 235 212 212 236 212 212 236 212 212 236
212 212 236 212 212 236 213 213 236 213 213 236 213 213 236 213 213
236 213 213 237 213 213 237 213 213 237 213 213 237 213 213 237 213
213 237 213 213 237 213 213 237 213 213 237 213 213 237 213 213 237
213 213 237 213 213 237 213 213 237 213 213 237 213 213 237 213 213
237 213 213 236 213 213 236 213 213 236 213 213 236 213 213 236 213
213 236 213 213 236 213 213 236 213 213 236 212 212 236 212 212 236
212 212 236 212 212 236 212 212 236 212 212 236 212 212 236 212 212
235 212 212 235 212 212
79 71 71 79 71 71 79 71 71 79 71 71 79 71 71 78 71 71 78 70 70 78 70
70 78 70 70 78 70 70 77 70 70 77 69 69 77 69 69 77 69 69 77 69 69 76
69 69 76 69 69 76 68 68 76 68 68 75 68 68 75 68 68 75 68 68 75 67 67
75 67 67 74 67 67 74 67 67 74 67 67 74 66 66 73 66 66 73 66 66 73 66
66 73 65 65 72 65 65 72 65 65 72 65 65 72 64 64 71 64 64 71 64 64 71
64 64 71 64 64 70 63 63 70 63 63 70 63 63 69 63 63 69 62 62 69 62 62
69 62 62 68 61 61 68 61 61 68 61 61 192 173 173 234 211 211 234 211
211 235 211 211 235 211 211 235 212 212 235 212 212 235 212 212 235
212 212 236 212 212 236 212 212 236 212 212 236 212 212 236 212 212
236 212 212 236 213 213 236 213 213 236 213 213 236 213 213 236 213
213 236 213 213 236 213 213 236 213 213 236 213 213 236 213 213 236
213 213 236 213 213 236 213 213 236 213 213 236 213 213 236 213 213
236 213 213 236 213 213 236 213 213 236 212 212 236 212 212 236 212
212 236 212 212 236 212 212 236 212 212 236 212 212 236 212 212 236
212 212 235 212 212 235 212 212 235 212 212 235 212 212 235 212 212
235 212 212 235 212 212
79 71 71 79 71 71 79 71 71 79 71 71 78 71 71 78 70 70 78 70 70 78 70
70 78 70 70 77 70 70 77 70 70 77 69 69 77 69 69 77 69 69 76 69 69 76
69 69 76 68 68 76 68 68 76 68 68 75 68 68 75 68 68 75 67 67 75 67 67
74 67 67 74 67 67 74 67 67 74 66 66 73 66 66 73 66 66 73 66 66 73 66
66 73 65 65 72 65 65 72 65 65 72 65 65 71 64 64 71 64 64 64 76 66 57
88 68 57 88 68 29 127 72 29 123 70 28 118 67 27 110 63 55 78 62 54 74
60 61 67 60 68 61 61 68 61 61 68 61 61 192 173 173 234 210 210 234
211 211 234 211 211 234 211 211 235 211 211 235 211 211 235 211 211
235 212 212 235 212 212 235 212 212 235 212 212 235 212 212 236 212
212 236 212 212 236 212 212 236 212 212 236 212 212 236 212 212 236
212 212 236 212 212 236 212 212 236 212 212 236 212 212 236 212 212
236 212 212 236 212 212 236 212 212 236 212 212 236 212 212 236 212
212 236 212 212 236 212 212 236 212 212 236 212 212 236 212 212 236
212 212 236 212 212 235 212 212 235 212 212 235 212 212 235 212 212
235 212 212 235 212 212 235 212 212 235 212 212 235 211 211 235 211
211 235 211 211 235 211 211
79 71 71 79 71 71 79 71 71 78 71 71 78 71 71 78 70 70 78 70 70 78 70
70 78 70 70 77 70 70 77 69 69 77 69 69 77 69 69 77 69 69 76 69 69 76
69 69 76 68 68 76 68 68 75 68 68 75 68 68 75 68 68 75 67 67 75 67 67
74 67 67 74 67 67 74 67 67 74 66 66 73 66 66 73 66 66 73 66 66 73 65
65 72 65 65 72 65 65 72 65 65 65 78 67 58 93 70 31 147 82 24 159 84
17 170 85 17 166 83 17 161 81 16 155 78 15 148 74 14 140 70 14 131 66
12 120 60 19 104 56 25 87 51 53 66 56 60 62 57 192 173 173 233 210
210 234 210 210 234 210 210 234 211 211 234 211 211 234 211 211 234
211 211 235 211 211 235 211 211 235 211 211 235 212 212 235 212 212
235 212 212 235 212 212 235 212 212 235 212 212 235 212 212 235 212
212 235 212 212 235 212 212 236 212 212 236 212 212 236 212 212 236
212 212 236 212 212 236 212 212 236 212 212 235 212 212 235 212 212
235 212 212 235 212 212 235 212 212 235 212 212 235 212 212 235 212
212 235 212 212 235 212 212 235 212 212 235 212 212 235 212 212 235
211 211 235 211 211 235 211 211 235 211 211 235 211 211 235 211 211
235 211 211 234 211 211 234 211 211
79 71 71 79 71 71 79 71 71 78 71 71 78 70 70 78 70 70 78 70 70 78 70
70 77 70 70 77 70 70 77 69 69 77 69 69 77 69 69 76 69 69 76 69 69 76
68 68 76 68 68 76 68 68 75 68 68 75 68 68 75 67 67 75 67 67 74 67 67
74 67 67 74 67 67 74 66 66 74 66 66 73 66 66 73 66 66 73 66 66 73 65
65 72 65 65 72 65 65 65 80 68 25 169 89 19 185 93 19 184 92 19 181 91
18 178 89 18 173 87 17 167 84 17 161 81 16 154 77 15 147 74 14 139 70
13 129 65 12 119 60 11 107 54 10 92 46 16 75 41 184 174 169 233 210
210 233 210 210 233 210 210 233 210 210 234 210 210 234 211 211 234
211 211 234 211 211 234 211 211 234 211 211 235 211 211 235 211 211
235 211 211 235 211 211 235 211 211 235 211 211 235 212 212 235 212
212 235 212 212 235 212 212 235 212 212 235 212 212 235 212 212 235
212 212 235 212 212 235 212 212 235 212 212 235 212 212 235 212 212
235 212 212 235 212 212 235 212 212 235 212 212 235 211 211 235 211
211 235 211 211 235 211 211 235 211 211 235 211 211 235 211 211 235
211 211 235 211 211 234 211 211 234 211 211 234 211 211 234 211 211
234 211 211 234 211 211 234 211 211
79 71 71 79 71 71 78 71 71 78 70 70 78 70 70 78 70 70 78 70 70 77 70
70 77 70 70 77 69 69 77 69 69 77 69 69 76 69 69 76 69 69 76 69 69 76
68 68 76 68 68 75 68 68 75 68 68 75 68 68 75 67 67 75 67 67 74 67 67
74 67 67 74 67 67 74 66 66 73 66 66 73 66 66 73 66 66 73 65 65 72 65
65 66 81 69 32 156 86 26 177 93 20 193 97 20 192 96 19 189 95 19 185
93 19 181 91 18 176 88 17 170 85 17 164 82 16 157 79 15 150 75 15 142
71 14 134 67 13 124 62 12 114 57 11 102 51 9 89 45 36 91 59 176 171
164 204 189 186 233 210 210 233 210 210 233 210 210 233 210 210 234
210 210 234 210 210 234 211 211 234 211 211 234 211 211 234 211 211
234 211 211 234 211 211 234 211 211 234 211 211 235 211 211 235 211
211 235 211 211 235 211 211 235 211 211 235 211 211 235 211 211 235
211 211 235 211 211 235 211 211 235 211 211 235 211 211 235 211 211
235 211 211 235 211 211 235 211 211 235 211 211 235 211 211 235 211
211 234 211 211 234 211 211 234 211 211 234 211 211 234 211 211 234
211 211 234 211 211 234 211 211 234 211 211 234 211 211 234 211 211
234 211 211 234 210 210 234 210 210
79 71 71 79 71 71 78 71 71 78 70 70 78 70 70 78 70 70 78 70 70 77 70
70 77 69 69 77 69 69 77 69 69 77 69 69 76 69 69 76 69 69 76 68 68 76
68 68 76 68 68 75 68 68 75 68 68 75 67 67 75 67 67 74 67 67 74 67 67
74 67 67 74 66 66 74 66 66 73 66 66 73 66 66 73 66 66 73 65 65 66 81
69 26 177 93 20 197 99 20 198 99 20 197 99 20 195 98 20 191 96 19 187
94 19 182 91 18 177 89 18 171 86 17 165 83 16 159 80 16 151 76 15 144
72 14 136 68 13 127 64 12 117 59 11 107 54 10 95 48 9 81 41 7 64 32
33 63 45 204 187 185 233 209 209 233 210 210 233 210 210 233 210 210
233 210 210 233 210 210 234 210 210 234 210 210 234 210 210 234 211
211 234 211 211 234 211 211 234 211 211 234 211 211 234 211 211 234
211 211 234 211 211 234 211 211 234 211 211 234 211 211 234 211 211
234 211 211 234 211 211 234 211 211 234 211 211 234 211 211 234 211
211 234 211 211 234 211 211 234 211 211 234 211 211 234 211 211 234
211 211 234 211 211 234 211 211 234 211 211 234 211 211 234 211 211
234 211 211 234 210 210 234 210 210 234 210 210 234 210 210 234 210
210 233 210 210 233 210 210
79 71 71 78 71 71 78 70 70 78 70 70 78 70 70 78 70 70 77 70 70 77 70
70 77 69 69 77 69 69 77 69 69 76 69 69 76 69 69 76 68 68 76 68 68 76
68 68 75 68 68 75 68 68 75 68 68 75 67 67 75 67 67 74 67 67 74 67 67
74 67 67 74 66 66 73 66 66 73 66 66 73 66 66 73 65 65 66 81 69 26 179
94 20 200 100 21 202 101 21 201 101 20 199 100 20 196 98 20 192 96 19
187 94 19 183 92 18 177 89 18 171 86 17 165 83 16 159 80 16 152 76 15
144 72 14 136 68 13 128 64 12 119 60 11 109 55 10 98 49 9 86 43 8 72
36 6 54 27 32 54 40 203 186 185 232 209 209 232 209 209 233 209 209
233 210 210 233 210 210 233 210 210 233 210 210 233 210 210 233 210
210 233 210 210 234 210 210 234 210 210 234 210 210 234 210 210 234
210 210 234 211 211 234 211 211 234 211 211 234 211 211 234 211 211
234 211 211 234 211 211 234 211 211 234 211 211 234 211 211 234 211
211 234 211 211 234 211 211 234 211 211 234 211 211 234 210 210 234
210 210 234 210 210 234 210 210 234 210 210 234 210 210 234 210 210
233 210 210 233 210 210 233 210 210 233 210 210 233 210 210 233 210
210 233 210 210 233 210 210
78 71 71 78 70 70 78 70 70 78 70 70 78 70 70 78 70 70 77 70 70 77 69
69 77 69 69 77 69 69 77 69 69 76 69 69 76 69 69 76 68 68 76 68 68 76
68 68 75 68 68 75 68 68 75 67 67 75 67 67 74 67 67 74 67 67 74 67 67
74 66 66 74 66 66 73 66 66 73 66 66 73 66 66 66 81 69 26 177 93 21
201 101 21 203 102 21 203 102 21 201 101 20 199 100 20 195 98 20 191
96 19 187 94 19 182 91 18 176 88 18 171 86 17 165 83 16 158 79 16 151
76 15 144 72 14 136 68 13 128 64 12 119 60 11 109 55 10 99 50 9 88 44
8 75 38 6 60 30 5 42 21 60 73 63 232 209 209 232 209 209 232 209 209
232 209 209 232 209 209 233 209 209 233 210 210 233 210 210 233 210
210 233 210 210 233 210 210 233 210 210 233 210 210 233 210 210 233
210 210 233 210 210 233 210 210 234 210 210 234 210 210 234 210 210
234 210 210 234 210 210 234 210 210 234 210 210 234 210 210 234 210
210 234 210 210 234 210 210 233 210 210 233 210 210 233 210 210 233
210 210 233 210 210 233 210 210 233 210 210 233 210 210 233 210 210
233 210 210 233 210 210 233 210 210 233 210 210 233 210 210 233 210
210 233 210 210 233 210 210
78 71 71 78 70 70 78 70 70 78 70 70 78 70 70 77 70 70 77 70 70 77 69
69 77 69 69 77 69 69 76 69 69 76 69 69 76 68 68 76 68 68 76 68 68 75
68 68 75 68 68 75 68 68 75 67 67 75 67 67 74 67 67 74 67 67 74 67 67
74 66 66 73 66 66 73 66 66 73 66 66 73 65 65 59 97 73 20 199 100 21
204 102 21 204 102 21 203 102 21 201 101 20 198 99 20 194 97 19 190
95 19 185 93 18 180 90 18 175 88 17 169 85 17 163 82 16 157 79 15 150
75 15 143 72 14 135 68 13 127 64 12 118 59 11 109 55 10 99 50 9 88 44
8 76 38 7 63 32 5 47 24 32 52 39 203 186 184 232 208 208 232 209 209
232 209 209 232 209 209 232 209 209 232 209 209 232 209 209 233 209
209 233 209 209 233 209 209 233 210 210 233 210 210 233 210 210 233
210 210 233 210 210 233 210 210 233 210 210 233 210 210 233 210 210
233 210 210 233 210 210 233 210 210 233 210 210 233 210 210 233 210
210 233 210 210 233 210 210 233 210 210 233 210 210 233 210 210 233
210 210 233 210 210 233 210 210 233 210 210 233 210 210 233 210 210
233 210 210 233 210 210 233 209 209 233 209 209 233 209 209 233 209
209 232 209 209 232 209 209
78 70 70 78 70 70 78 70 70 78 70 70 77 70 70 77 70 70 77 69 69 77 69
69 77 69 69 76 69 69 76 69 69 76 69 69 76 68 68 76 68 68 75 68 68 75
68 68 75 68 68 75 67 67 75 67 67 74 67 67 74 67 67 74 67 67 74 66 66
74 66 66 73 66 66 73 66 66 73 66 66 66 81 69 27 180 94 21 202 101 21
204 102 21 204 102 21 202 101 20 199 100 20 196 98 20 192 96 19 188
94 19 183 92 18 178 89 18 173 87 17 167 84 17 161 81 16 155 78 15 148
74 15 141 71 14 133 67 13 125 63 12 117 59 11 108 54 10 98 49 9 88 44
8 76 38 7 64 32 5 49 25 4 33 17 32 49 38 203 185 184 231 208 208 231
208 208 232 208 208 232 209 209 232 209 209 232 209 209 232 209 209
232 209 209 232 209 209 232 209 209 232 209 209 232 209 209 233 209
209 233 209 209 233 209 209 233 209 209 233 209 209 233 210 210 233
210 210 233 210 210 233 210 210 233 210 210 233 210 210 233 210 210
233 210 210 233 210 210 233 210 210 233 209 209 233 209 209 233 209
209 233 209 209 233 209 209 233 209 209 233 209 209 232 209 209 232
209 209 232 209 209 232 209 209 232 209 209 232 209 209 232 209 209
232 209 209 232 209 209
78 70 70 78 70 70 78 70 70 78 70 70 77 70 70 77 69 69 77 69 69 77 69
69 77 69 69 76 69 69 76 69 69 76 68 68 76 68 68 76 68 68 75 68 68 75
68 68 75 67 67 75 67 67 75 67 67 74 67 67 74 67 67 74 67 67 74 66 66
73 66 66 73 66 66 73 66 66 73 65 65 32 156 86 20 198 99 21 202 101 21
203 102 21 202 101 20 200 100 20 197 99 20 194 97 20 190 96 20 186 94
19 181 91 18 176 88 18 171 86 17 165 83 16 159 80 16 152 76 15 146 73
14 139 70 14 131 66 13 123 62 12 115 58 11 106 53 10 97 49 9 87 44 8
76 38 7 63 32 5 50 25 4 34 17 3 26 13 174 162 159 231 208 208 231 208
208 231 208 208 231 208 208 231 208 208 232 208 208 232 209 209 232
209 209 232 209 209 232 209 209 232 209 209 232 209 209 232 209 209
232 209 209 232 209 209 232 209 209 232 209 209 232 209 209 232 209
209 232 209 209 232 209 209 232 209 209 232 209 209 232 209 209 232
209 209 232 209 209 232 209 209 232 209 209 232 209 209 232 209 209
232 209 209 232 209 209 232 209 209 232 209 209 232 209 209 232 209
209 232 209 209 232 209 209 232 209 209 232 209 209 232 209 209 232
209 209 232 209 209
78 70 70 78 70 70 78 70 70 77 70 70 77 70 70 77 69 69 77 69 69 77 69
69 76 69 69 76 69 69 76 68 68 76 68 68 76 68 68 75 68 68 75 68 68 75
68 68 75 67 67 75 67 67 74 67 67 74 67 67 74 67 67 74 66 66 74 66 66
73 66 66 73 66 66 73 66 66 66 80 69 26 176 92 20 199 100 21 201 101
21 201 101 20 200 100 20 198 99 20 195 98 20 192 97 30 198 104 36 200
109 22 181 93 18 173 87 17 168 84 17 162 81 16 156 78 15 150 75 15
143 72 14 136 68 13 129 65 13 121 61 12 113 57 11 104 52 10 95 48 9
85 43 8 74 37 7 62 31 5 49 25 4 34 17 3 26 13 60 71 62 230 207 207
230 207 207 231 208 208 231 208 208 231 208 208 231 208 208 231 208
208 231 208 208 231 208 208 231 208 208 232 208 208 232 209 209 232
209 209 232 209 209 232 209 209 232 209 209 232 209 209 232 209 209
232 209 209 232 209 209 232 209 209 232 209 209 232 209 209 232 209
209 232 209 209 232 209 209 232 209 209 232 209 209 232 209 209 232
209 209 232 209 209 232 209 209 232 209 209 232 209 209 232 209 209
232 209 209 232 209 209 232 209 209 232 208 208 232 208 208 232 208
208 231 208 208 231 208 208
78 70 70 78 70 70 77 70 70 77 70 70 77 69 69 77 69 69 77 69 69 77 69
69 76 69 69 76 69 69 76 68 68 76 68 68 76 68 68 75 68 68 75 68 68 75
67 67 75 67 67 74 67 67 74 67 67 74 67 67 74 67 67 74 66 66 73 66 66
73 66 66 73 66 66 73 65 65 59 95 72 20 192 96 20 197 99 20 199 100 20
199 100 20 197 99 20 195 98 20 192 96 22 191 97 58 223 132 63 225 135
23 180 93 18 170 85 17 165 83 16 159 80 16 153 77 15 147 74 14 140 70
14 133 67 13 126 63 12 118 59 11 110 55 11 101 51 10 92 46 9 82 41 8
72 36 6 60 30 5 47 24 4 33 17 3 26 13 31 49 37 202 184 183 230 207
207 230 207 207 230 207 207 230 207 207 231 208 208 231 208 208 231
208 208 231 208 208 231 208 208 231 208 208 231 208 208 231 208 208
231 208 208 231 208 208 231 208 208 231 208 208 231 208 208 232 208
208 232 208 208 232 208 208 232 208 208 232 208 208 232 208 208 232
208 208 232 208 208 232 208 208 232 208 208 232 208 208 232 208 208
232 208 208 231 208 208 231 208 208 231 208 208 231 208 208 231 208
208 231 208 208 231 208 208 231 208 208 231 208 208 231 208 208 231
208 208 231 208 208
78 70 70 78 70 70 77 70 70 77 69 69 77 69 69 77 69 69 77 69 69 76 69
69 76 69 69 76 68 68 76 68 68 76 68 68 75 68 68 75 68 68 75 68 68 75
67 67 75 67 67 74 67 67 74 67 67 74 67 67 74 66 66 74 66 66 73 66 66
73 66 66 73 66 66 73 65 65 32 151 84 20 191 96 20 195 98 20 196 98 20
195 98 20 194 97 20 191 96 19 188 94 21 187 95 37 199 109 33 191 103
19 173 88 17 166 83 17 161 81 16 155 78 15 149 75 15 143 72 14 137 69
13 130 65 13 122 61 12 115 58 11 107 54 10 98 49 9 89 45 8 79 40 7 69
35 6 58 29 5 45 23 4 32 16 3 26 13 3 26 13 173 161 158 230 207 207
230 207 207 230 207 207 230 207 207 230 207 207 230 207 207 230 207
207 230 207 207 231 208 208 231 208 208 231 208 208 231 208 208 231
208 208 231 208 208 231 208 208 231 208 208 231 208 208 231 208 208
231 208 208 231 208 208 231 208 208 231 208 208 231 208 208 231 208
208 231 208 208 231 208 208 231 208 208 231 208 208 231 208 208 231
208 208 231 208 208 231 208 208 231 208 208 231 208 208 231 208 208
231 208 208 231 208 208 231 208 208 231 208 208 231 208 208 231 208
208 231 208 208
78 70 70 77 70 70 77 70 70 77 69 69 77 69 69 77 69 69 76 69 69 76 69
69 76 69 69 76 68 68 76 68 68 75 68 68 75 68 68 75 68 68 75 67 67 75
67 67 74 67 67 74 67 67 74 67 67 74 66 66 74 66 66 73 66 66 73 66 66
73 66 66 73 65 65 72 65 65 32 152 84 19 188 94 20 192 96 20 192 96 20
192 96 19 190 95 19 187 94 19 184 92 19 181 91 19 178 90 18 173 87 17
168 84 17 163 82 16 157 79 16 152 76 15 146 73 14 139 70 14 133 67 13
126 63 12 119 60 12 111 56 11 103 52 10 94 47 9 85 43 8 76 38 7 66 33
6 54 27 5 42 21 3 30 15 3 26 13 3 26 13 60 71 61 229 206 206 229 206
206 229 206 206 230 207 207 230 207 207 230 207 207 230 207 207 230
207 207 230 207 207 230 207 207 230 207 207 230 207 207 230 207 207
231 208 208 231 208 208 231 208 208 231 208 208 231 208 208 231 208
208 231 208 208 231 208 208 231 208 208 231 208 208 231 208 208 231
208 208 231 208 208 231 208 208 231 208 208 231 208 208 231 208 208
231 208 208 231 208 208 231 208 208 231 208 208 231 208 208 231 208
208 231 208 208 231 208 208 231 208 208 230 207 207 230 207 207 230
207 207
77 70 70 77 70 70 77 69 69 77 69 69 77 69 69 77 69 69 76 69 69 76 69
69 76 68 68 76 68 68 76 68 68 75 68 68 75 68 68 75 68 68 75 67 67 75
67 67 74 67 67 74 67 67 74 67 67 74 66 66 73 66 66 73 66 66 73 66 66
73 66 66 73 65 65 72 65 65 32 150 83 19 185 93 19 188 94 19 188 94 19
187 94 19 186 93 19 183 92 18 180 90 18 176 88 18 172 86 17 168 84 17
163 82 16 158 79 16 153 77 15 147 74 15 141 71 14 135 68 13 129 65 13
122 61 12 115 58 11 107 54 10 99 50 10 91 46 9 82 41 8 72 36 7 62 31
6 51 26 4 39 20 3 28 14 3 26 13 3 26 13 59 71 61 229 206 206 229 206
206 229 206 206 229 206 206 229 206 206 229 206 206 229 207 207 230
207 207 230 207 207 230 207 207 230 207 207 230 207 207 230 207 207
230 207 207 230 207 207 230 207 207 230 207 207 230 207 207 230 207
207 230 207 207 230 207 207 230 207 207 230 207 207 230 207 207 230
207 207 230 207 207 230 207 207 230 207 207 230 207 207 230 207 207
230 207 207 230 207 207 230 207 207 230 207 207 230 207 207 230 207
207 230 207 207 230 207 207 230 207 207 230 207 207 230 207 207 230
207 207
77 70 70 77 69 69 77 69 69 77 69 69 77 69 69 76 69 69 76 69 69 76 68
68 76 68 68 76 68 68 75 68 68 75 68 68 75 68 68 75 67 67 75 67 67 74
67 67 74 67 67 74 67 67 74 66 66 74 66 66 73 66 66 73 66 66 73 66 66
73 65 65 72 65 65 72 65 65 31 147 82 18 180 90 19 183 92 19 184 92 19
183 92 19 181 91 18 178 89 18 175 88 18 172 86 17 168 84 17 164 82 16
159 80 16 154 77 15 149 75 15 143 72 14 137 69 14 131 66 13 124 62 12
117 59 11 110 55 11 103 52 10 95 48 9 86 43 8 77 39 7 68 34 6 58 29 5
47 24 4 35 18 3 27 14 3 26 13 3 26 13 59 71 61 228 205 205 228 205
205 228 206 206 229 206 206 229 206 206 229 206 206 229 206 206 229
206 206 229 206 206 229 206 206 229 207 207 229 207 207 230 207 207
230 207 207 230 207 207 230 207 207 230 207 207 230 207 207 230 207
207 230 207 207 230 207 207 230 207 207 230 207 207 230 207 207 230
207 207 230 207 207 230 207 207 230 207 207 230 207 207 230 207 207
230 207 207 230 207 207 230 207 207 230 207 207 230 207 207 230 207
207 230 207 207 230 207 207 230 207 207 230 207 207 230 207 207 230
207 207
77 70 70 77 69 69 77 69 69 77 69 69 76 69 69 76 69 69 76 69 69 76 68
68 76 68 68 75 68 68 75 68 68 75 68 68 75 67 67 75 67 67 74 67 67 74
67 67 74 67 67 74 67 67 74 66 66 73 66 66 73 66 66 73 66 66 73 66 66
73 65 65 72 65 65 72 65 65 31 143 80 18 175 88 18 178 89 18 179 90 18
178 89 18 176 88 18 173 87 17 170 85 17 167 84 17 163 82 16 159 80 16
154 77 15 149 75 15 144 72 14 138 69 14 132 66 13 126 63 12 120 60 12
113 57 11 106 53 10 98 49 9 90 45 9 82 41 8 73 37 7 63 32 6 53 27 5
42 21 4 31 16 3 26 13 3 26 13 3 26 13 59 71 61 228 205 205 228 205
205 228 205 205 228 205 205 228 205 205 228 206 206 229 206 206 229
206 206 229 206 206 229 206 206 229 206 206 229 206 206 229 206 206
229 206 206 229 206 206 229 206 206 229 206 206 229 207 207 229 207
207 230 207 207 230 207 207 230 207 207 230 207 207 230 207 207 230
207 207 230 207 207 230 207 207 230 207 207 230 207 207 230 207 207
230 207 207 230 207 207 230 207 207 230 207 207 230 207 207 230 207
207 230 207 207 229 207 207 229 207 207 229 207 207 229 207 207 229
206 206
77 69 69 77 69 69 77 69 69 77 69 69 76 69 69 76 69 69 76 68 68 76 68
68 76 68 68 75 68 68 75 68 68 75 68 68 75 67 67 75 67 67 74 67 67 74
67 67 74 67 67 74 66 66 74 66 66 73 66 66 73 66 66 73 66 66 73 65 65
72 65 65 72 65 65 72 65 65 31 138 77 17 169 85 18 172 86 18 173 87 18
172 86 18 171 86 17 168 84 17 165 83 17 162 81 16 158 79 16 154 77 15
149 75 15 144 72 14 139 70 14 133 67 13 127 64 13 121 61 12 115 58 11
108 54 11 101 51 10 93 47 9 85 43 8 77 39 7 68 34 6 58 29 5 48 24 4
37 19 3 27 14 3 26 13 3 26 13 3 26 13 59 71 61 227 204 204 227 205
205 227 205 205 228 205 205 228 205 205 228 205 205 228 205 205 228
205 205 228 206 206 228 206 206 229 206 206 229 206 206 229 206 206
229 206 206 229 206 206 229 206 206 229 206 206 229 206 206 208 196
182 188 187 158 187 186 158 208 195 182 229 206 206 229 206 206 229
206 206 229 206 206 229 206 206 229 206 206 229 206 206 229 206 206
229 206 206 229 206 206 229 206 206 229 206 206 229 206 206 229 206
206 229 206 206 229 206 206 229 206 206 229 206 206 229 206 206 229
206 206
77 69 69 77 69 69 77 69 69 76 69 69 76 69 69 76 68 68 76 68 68 76 68
68 75 68 68 75 68 68 75 68 68 75 67 67 75 67 67 74 67 67 74 67 67 74
67 67 74 67 67 74 66 66 73 66 66 73 66 66 73 66 66 73 66 66 73 65 65
72 65 65 72 65 65 72 65 65 30 132 74 17 162 81 17 166 83 17 167 84 17
166 83 17 165 83 17 162 81 16 159 80 16 156 78 16 152 76 15 148 74 15
143 72 14 138 69 14 133 67 13 128 64 13 122 61 12 116 58 11 109 55 11
102 51 10 95 48 9 88 44 8 80 40 8 71 36 7 62 31 6 53 27 5 42 21 4 32
16 3 26 13 3 26 13 3 26 13 3 26 13 59 70 61 227 204 204 227 204 204
227 204 204 227 204 204 227 205 205 227 205 205 228 205 205 228 205
205 228 205 205 228 205 205 228 205 205 228 205 205 228 205 205 228
206 206 228 206 206 210 200 182 192 196 159 117 172 64 98 164 40 76
151 16 73 145 15 89 146 38 105 146 61 96 128 60 207 194 182 229 206
206 229 206 206 229 206 206 229 206 206 229 206 206 229 206 206 229
206 206 229 206 206 229 206 206 229 206 206 229 206 206 229 206 206
229 206 206 229 206 206 229 206 206 229 206 206 229 206 206
77 69 69 77 69 69 76 69 69 76 69 69 76 68 68 76 68 68 76 68 68 75 68
68 75 68 68 75 68 68 75 67 67 75 67 67 75 67 67 74 67 67 74 67 67 74
67 67 74 66 66 74 66 66 73 66 66 73 66 66 73 66 66 73 65 65 72 65 65
72 65 65 72 65 65 72 65 65 29 124 70 16 154 77 16 159 80 16 160 80 16
160 80 16 158 79 16 156 78 16 153 77 15 150 75 15 146 73 15 142 71 14
138 69 14 133 67 13 127 64 13 122 61 12 116 58 11 110 55 11 103 52 10
97 49 9 89 45 9 82 41 8 74 37 7 65 33 6 56 28 5 47 24 4 36 18 3 27 14
3 26 13 3 26 13 3 26 13 3 26 13 59 70 61 226 204 204 226 204 204 226
204 204 227 204 204 227 204 204 227 204 204 227 204 204 227 205 205
227 205 205 227 205 205 228 205 205 228 205 205 228 205 205 228 205
205 211 202 182 105 177 41 89 178 18 91 181 19 90 179 18 87 174 18 84
167 17 79 157 16 73 145 15 65 129 13 78 124 36 89 115 58 205 190 181
228 206 206 228 206 206 228 206 206 228 206 206 228 206 206 228 206
206 228 206 206 228 206 206 228 206 206 228 206 206 228 206 206 228
206 206 228 206 206 228 206 206 228 206 206
77 69 69 76 69 69 76 69 69 76 69 69 76 68 68 76 68 68 76 68 68 75 68
68 75 68 68 75 68 68 75 67 67 75 67 67 74 67 67 74 67 67 74 67 67 74
66 66 74 66 66 73 66 66 73 66 66 73 66 66 73 66 66 73 65 65 72 65 65
72 65 65 72 65 65 72 65 65 57 83 66 15 145 73 16 151 76 16 153 77 16
153 77 16 152 76 15 150 75 15 147 74 15 144 72 14 140 70 14 136 68 14
131 66 13 127 64 13 121 61 12 116 58 11 110 55 11 104 52 10 97 49 10
91 46 9 83 42 8 76 38 7 68 34 6 59 30 5 50 25 4 40 20 3 30 15 3 26 13
3 26 13 3 26 13 3 26 13 3 26 13 170 159 155 226 203 203 226 203 203
226 203 203 226 204 204 226 204 204 226 204 204 227 204 204 227 204
204 227 204 204 227 204 204 227 204 204 227 205 205 208 198 181 116
169 63 109 187 42 96 191 20 97 193 20 97 193 20 95 189 19 92 184 19
89 177 18 84 167 17 78 156 16 72 143 15 64 127 13 53 106 11 65 98 33
204 189 181 228 205 205 228 205 205 228 205 205 228 205 205 228 205
205 228 205 205 228 205 205 228 205 205 228 205 205 228 205 205 228
205 205 228 205 205 228 205 205 228 205 205
77 69 69 76 69 69 76 69 69 76 68 68 76 68 68 76 68 68 75 68 68 75 68
68 75 68 68 75 67 67 75 67 67 74 67 67 74 67 67 74 67 67 74 67 67 74
66 66 73 66 66 73 66 66 73 66 66 73 66 66 73 65 65 72 65 65 72 65 65
72 65 65 72 65 65 72 64 64 64 73 65 21 127 67 15 142 71 15 145 73 15
145 73 15 144 72 15 142 71 14 140 70 14 137 69 14 133 67 13 129 65 13
125 63 12 120 60 12 115 58 11 109 55 11 104 52 10 97 49 10 91 46 9 84
42 8 77 39 7 69 35 7 61 31 6 52 26 5 43 22 4 33 17 3 27 14 3 26 13 3
26 13 3 26 13 3 26 13 31 48 37 197 180 179 225 203 203 225 203 203
225 203 203 226 203 203 226 203 203 226 203 203 226 204 204 226 204
204 226 204 204 227 204 204 227 204 204 227 204 204 191 195 157 91
182 19 98 195 20 100 200 20 100 200 20 99 198 20 97 194 20 95 189 19
91 182 19 87 173 18 81 162 17 75 150 15 68 135 14 59 118 12 48 96 10
60 87 32 203 187 180 228 205 205 228 205 205 228 205 205 228 205 205
228 205 205 228 205 205 228 205 205 228 205 205 228 205 205 228 205
205 228 205 205 228 205 205 228 205 205
76 69 69 76 69 69 76 68 68 76 68 68 76 68 68 75 68 68 75 68 68 75 68
68 75 67 67 75 67 67 75 67 67 74 67 67 74 67 67 74 67 67 74 66 66 74
66 66 73 66 66 73 66 66 73 66 66 73 65 65 72 65 65 72 65 65 72 65 65
72 65 65 72 65 65 71 64 64 71 64 64 27 107 62 14 131 66 14 135 68 14
137 69 14 136 68 14 135 68 14 132 66 13 130 65 13 126 63 13 122 61 12
118 59 12 113 57 11 108 54 11 102 51 10 97 49 10 91 46 9 84 42 8 77
39 7 70 35 7 62 31 6 54 27 5 45 23 4 36 18 3 27 14 3 26 13 3 26 13 3
26 13 3 26 13 3 26 13 48 61 51 160 144 144 160 144 144 203 183 183
204 183 183 204 183 183 215 193 193 225 203 203 226 203 203 226 203
203 226 203 203 226 204 204 226 204 204 209 200 180 108 184 42 97 194
20 101 201 21 102 203 21 102 203 21 101 201 21 98 196 20 96 191 20 92
183 19 88 175 18 83 165 17 77 153 16 70 140 14 62 124 13 53 105 11 41
81 9 50 69 30 201 183 180 227 205 205 227 205 205 227 205 205 227 205
205 227 205 205 227 205 205 227 205 205 227 205 205 227 205 205 227
205 205 227 205 205 227 205 205
76 69 69 76 69 69 76 68 68 76 68 68 76 68 68 75 68 68 75 68 68 75 68
68 75 67 67 75 67 67 74 67 67 74 67 67 74 67 67 74 66 66 74 66 66 73
66 66 73 66 66 73 66 66 73 66 66 73 65 65 72 65 65 72 65 65 72 65 65
72 65 65 71 64 64 71 64 64 71 64 64 64 71 63 20 113 61 13 125 63 13
127 64 13 127 64 13 126 63 13 124 62 13 122 61 12 118 59 12 114 57 11
110 55 11 106 53 11 101 51 10 95 48 9 89 45 9 83 42 8 77 39 7 70 35 7
62 31 6 54 27 5 46 23 4 37 19 3 29 15 3 26 13 3 26 13 3 26 13 3 26 13
3 26 13 21 39 28 124 115 113 141 127 127 141 127 127 141 127 127 140
126 126 140 126 126 150 135 135 161 145 145 161 145 145 161 145 145
204 184 184 204 184 184 204 184 184 107 164 54 93 186 19 99 197 20
102 203 21 102 204 21 102 203 21 100 200 21 98 196 20 95 190 19 92
183 19 88 175 18 83 165 17 77 154 16 71 141 15 63 126 13 54 108 11 44
87 9 29 58 6 68 74 54 227 204 204 227 204 204 227 204 204 227 204 204
227 204 204 227 204 204 227 204 204 227 204 204 227 204 204 227 204
204 227 204 204 227 204 204
76 69 69 76 68 68 76 68 68 76 68 68 75 68 68 75 68 68 75 68 68 75 67
67 75 67 67 74 67 67 74 67 67 74 67 67 74 67 67 74 66 66 73 66 66 73
66 66 73 66 66 73 66 66 73 65 65 72 65 65 72 65 65 72 65 65 72 65 65
72 64 64 82 74 74 92 83 83 92 83 83 91 82 82 36 101 63 12 112 56 12
116 58 12 117 59 12 117 59 12 115 58 12 113 57 11 110 55 11 106 53 11
102 51 10 98 49 10 93 47 9 87 44 9 81 41 8 75 38 7 69 35 7 62 31 6 54
27 5 46 23 4 38 19 3 29 15 3 26 13 3 26 13 3 26 13 3 26 13 3 26 13 3
26 13 38 52 42 144 129 129 143 129 129 143 129 129 143 129 129 143
128 128 142 128 128 142 128 128 142 127 127 141 127 127 141 127 127
141 127 127 140 126 126 132 129 112 92 165 31 94 188 19 99 197 20 101
201 21 101 202 21 101 202 21 111 209 32 107 203 29 94 188 19 91 181
19 87 173 18 82 163 17 76 152 16 70 140 14 63 125 13 55 109 11 45 89
9 32 64 7 43 55 29 200 182 179 227 204 204 227 204 204 227 204 204
227 204 204 227 204 204 227 204 204 227 204 204 227 204 204 227 204
204 227 204 204 227 204 204
76 68 68 76 68 68 76 68 68 75 68 68 75 68 68 75 68 68 75 67 67 75 67
67 75 67 67 74 67 67 74 67 67 74 67 67 74 66 66 74 66 66 73 66 66 73
66 66 85 74 60 98 84 54 140 114 29 132 108 28 119 97 27 103 84 25 80
66 23 125 112 105 145 130 130 155 139 139 155 139 139 154 139 139 136
134 128 28 102 60 11 103 52 11 106 53 11 107 54 11 106 53 11 104 52
11 101 51 10 97 49 10 93 47 9 89 45 9 84 42 8 79 40 8 73 37 7 67 34 6
60 30 6 53 27 5 45 23 4 37 19 3 29 15 3 26 13 3 26 13 3 26 13 3 26 13
3 26 13 3 26 13 21 39 28 128 118 117 146 131 131 145 131 131 145 131
131 145 130 130 145 130 130 144 130 130 144 130 130 144 129 129 143
129 129 143 129 129 143 129 129 142 128 128 126 134 100 85 169 17 93
186 19 97 194 20 99 198 20 100 199 20 99 198 21 122 219 44 108 202 32
92 184 19 89 177 18 85 169 17 80 160 16 75 149 15 69 137 14 62 123 13
54 107 11 44 88 9 33 65 7 18 36 4 173 159 153 226 204 204 226 204 204
226 204 204 226 204 204 226 204 204 226 204 204 226 204 204 226 204
204 226 204 204 226 204 204 226 204 204
76 68 68 76 68 68 76 68 68 75 68 68 75 68 68 75 68 68 75 67 67 75 67
67 74 67 67 74 67 67 85 77 77 96 86 86 95 86 86 95 86 86 138 125 125
142 126 109 173 139 25 183 146 19 174 139 18 160 128 16 143 114 15
122 98 13 98 78 10 83 68 24 63 54 38 140 126 124 156 141 141 156 141
141 156 140 140 137 134 128 28 95 56 10 92 46 10 95 48 10 94 47 10 93
47 10 91 46 9 88 44 9 84 42 8 79 40 8 75 38 7 69 35 7 64 32 6 57 29 6
51 26 5 43 22 4 36 18 3 28 14 3 26 13 3 26 13 3 26 13 3 26 13 3 26 13
3 26 13 21 40 28 130 120 119 148 133 133 148 133 133 147 133 133 147
132 132 147 132 132 146 132 132 146 132 132 146 131 131 146 131 131
145 131 131 145 130 130 145 130 130 144 130 130 127 135 101 83 166 17
91 182 19 95 189 19 97 193 20 97 193 20 96 192 20 95 189 20 93 185 19
90 179 18 86 172 18 82 164 17 78 155 16 72 144 15 66 132 14 59 118 12
52 103 11 43 85 9 31 62 7 18 36 4 162 149 143 215 193 193 226 203 203
226 203 203 226 203 203 226 203 203 226 203 203 226 203 203 226 203
203 226 203 203 226 203 203 226 203 203
76 68 68 76 68 68 75 68 68 86 78 78 97 88 88 97 88 88 97 87 87 141
127 127 141 127 127 141 127 127 151 136 136 162 146 146 162 146 146
162 145 145 166 147 130 195 158 36 197 158 20 188 151 19 176 141 18
161 129 17 143 115 15 123 99 13 101 81 11 75 60 8 44 35 5 43 36 20
141 127 125 158 142 142 157 142 142 157 141 141 138 134 129 27 85 51
8 80 40 9 81 41 9 81 41 8 79 40 8 77 39 8 73 37 7 69 35 7 64 32 6 59
30 6 53 27 5 47 24 4 40 20 4 33 17 3 27 14 3 26 13 3 26 13 3 26 13 3
26 13 3 26 13 3 26 13 22 40 29 132 122 120 150 135 135 150 135 135
149 134 134 149 134 134 149 134 134 148 134 134 148 133 133 148 133
133 148 133 133 147 133 133 147 132 132 147 132 132 146 132 132 146
131 131 128 135 102 79 158 16 87 174 18 91 182 19 93 186 19 93 186 19
93 185 19 91 182 19 89 178 18 86 172 18 83 165 17 79 157 16 74 148 15
69 138 14 63 126 13 56 112 12 49 97 10 40 79 8 29 57 6 16 32 4 45 51
34 150 135 135 161 145 145 161 145 145 161 145 145 204 184 184 204
184 184 204 183 183 215 193 193 225 203 203 225 203 203 225 203 203
144 129 129 144 129 129 143 129 129 154 139 139 165 149 149 165 149
149 165 148 148 164 148 148 164 148 148 164 148 148 164 147 147 163
147 147 163 147 147 167 148 131 195 158 36 203 162 21 196 157 20 186
149 19 172 138 18 157 125 16 139 111 14 119 96 12 97 78 10 73 58 8 44
35 5 26 21 3 126 113 108 159 143 143 159 143 143 159 143 143 158 142
142 139 133 129 26 72 45 7 65 33 7 66 33 7 66 33 7 64 32 7 61 31 6 57
29 6 53 27 5 48 24 5 42 21 4 36 18 3 30 15 3 27 14 3 26 13 3 26 13 3
26 13 3 26 13 3 26 13 3 26 13 22 40 29 133 123 121 152 137 137 151
136 136 151 136 136 151 136 136 151 136 136 150 135 135 150 135 135
150 135 135 149 134 134 149 134 134 149 134 134 148 134 134 148 133
133 148 133 133 148 133 133 127 132 103 74 147 15 83 165 17 87 173 18
89 177 18 89 178 18 89 177 18 87 174 18 85 170 17 82 164 17 79 158 16
75 150 15 71 141 15 65 130 13 59 118 12 53 105 11 45 90 9 36 72 8 25
50 5 15 29 3 45 51 34 141 127 127 141 127 127 141 127 127 140 126 126
140 126 126 140 126 126 140 126 126 150 135 135 161 145 145 161 145
145 160 144 144
167 151 151 167 151 151 167 150 150 167 150 150 166 150 150 166 150
150 166 149 149 166 149 149 165 149 149 165 149 149 165 148 148 165
148 148 164 148 148 172 150 116 201 161 21 199 160 20 196 158 25 192
156 31 166 133 17 150 120 15 132 106 14 113 90 12 91 73 10 67 54 7 40
32 4 26 21 3 60 52 38 160 144 144 160 144 144 160 144 144 160 144 144
159 143 143 140 132 128 43 69 52 25 61 40 5 49 25 5 48 24 5 46 23 5
43 22 4 39 20 4 34 17 3 30 15 3 27 14 3 26 13 3 26 13 3 26 13 3 26 13
3 26 13 3 26 13 22 40 29 41 54 45 135 124 123 153 138 138 153 138 138
153 138 138 152 137 137 152 137 137 152 137 137 152 136 136 151 136
136 151 136 136 151 136 136 150 135 135 150 135 135 150 135 135 150
135 135 149 134 134 149 134 134 138 133 119 78 135 29 76 152 16 81
162 17 83 166 17 84 168 17 84 167 17 82 164 17 80 160 16 78 155 16 74
148 15 71 141 15 66 132 14 61 121 13 55 109 11 48 96 10 40 80 8 31 62
7 20 40 4 14 27 3 111 103 97 143 129 129 143 128 128 142 128 128 142
128 128 142 128 128 141 127 127 141 127 127 141 127 127 141 127 127
140 126 126 140 126 126
169 152 152 168 152 152 168 151 151 168 151 151 168 151 151 167 151
151 167 150 150 167 150 150 167 150 150 166 150 150 166 149 149 166
149 149 165 149 149 185 152 52 196 157 20 192 154 20 188 152 24 178
143 24 157 126 16 141 113 15 123 99 13 104 83 11 82 66 9 58 47 6 34
27 4 26 21 3 43 36 21 144 130 128 161 145 145 161 145 145 161 145 145
160 144 144 160 144 144 160 144 144 140 130 128 43 58 47 23 45 32 3
30 15 3 28 14 3 27 14 3 26 13 3 26 13 3 26 13 3 26 13 3 26 13 3 26 13
3 26 13 22 40 29 41 55 45 136 126 124 155 140 140 155 139 139 155 139
139 154 139 139 154 139 139 154 138 138 153 138 138 153 138 138 153
138 138 153 137 137 152 137 137 152 137 137 152 137 137 151 136 136
151 136 136 151 136 136 151 136 136 150 135 135 150 135 135 81 120 43
68 136 14 74 148 15 77 153 16 78 155 16 78 155 16 77 153 16 75 149 15
72 144 15 69 138 14 65 130 13 61 121 13 56 111 12 50 99 10 43 85 9 35
69 7 25 50 5 15 30 3 30 39 19 128 117 114 144 130 130 144 130 130 144
129 129 143 129 129 143 129 129 143 129 129 143 128 128 142 128 128
142 128 128 142 128 128 142 127 127
169 153 153 169 152 152 169 152 152 169 152 152 168 152 152 168 151
151 168 151 151 168 151 151 167 151 151 167 151 151 167 150 150 167
150 150 166 150 150 180 149 52 187 150 19 182 146 19 172 138 18 160
128 16 146 117 15 130 104 13 112 90 12 93 74 10 71 57 8 48 38 5 28 23
3 26 21 3 43 37 21 145 131 128 162 146 146 162 146 146 162 146 146
161 145 145 161 145 145 161 145 145 161 145 145 160 144 144 141 129
128 121 115 111 42 56 46 42 55 46 23 41 30 3 26 13 3 26 13 22 41 29
42 55 46 42 55 46 119 113 110 138 127 125 157 141 141 157 141 141 156
141 141 156 140 140 156 140 140 155 140 140 155 140 140 155 139 139
155 139 139 154 139 139 154 139 139 154 138 138 153 138 138 153 138
138 153 138 138 153 137 137 152 137 137 152 137 137 152 137 137 152
136 136 151 136 136 139 133 121 71 120 28 65 130 13 69 138 14 71 141
15 71 142 15 70 140 14 69 137 14 66 132 14 63 125 13 59 118 12 55 109
11 49 98 10 43 86 9 36 72 8 28 56 6 19 37 4 14 27 3 46 52 35 146 131
131 146 131 131 145 131 131 145 131 131 145 130 130 145 130 130 144
130 130 144 130 130 144 129 129 144 129 129 143 129 129 143 129 129
170 153 153 170 153 153 170 153 153 170 153 153 169 152 152 169 152
152 169 152 152 169 152 152 168 152 152 168 151 151 168 151 151 168
151 151 167 151 151 172 141 51 175 140 18 170 136 17 160 128 16 148
118 15 134 107 14 118 94 12 100 80 10 80 64 8 59 47 6 36 29 4 26 21 3
26 21 3 60 52 39 163 147 147 163 147 147 163 147 147 163 146 146 162
146 146 162 146 146 162 146 146 162 145 145 161 145 145 161 145 145
161 145 145 160 144 144 160 144 144 140 129 128 121 114 111 120 114
111 140 129 127 159 143 143 159 143 143 158 143 143 158 142 142 158
142 142 158 142 142 157 142 142 157 141 141 157 141 141 156 141 141
156 141 141 156 140 140 156 140 140 155 140 140 155 140 140 155 139
139 155 139 139 154 139 139 154 139 139 154 138 138 154 138 138 153
138 138 153 138 138 153 137 137 152 137 137 152 137 137 70 98 41 54
107 11 60 119 12 62 124 13 63 126 13 63 125 13 61 122 13 59 117 12 56
111 12 52 104 11 47 94 10 42 84 9 36 71 8 29 57 6 20 40 4 14 28 3 30
39 19 131 119 117 147 132 132 147 132 132 147 132 132 146 132 132 146
132 132 146 131 131 146 131 131 145 131 131 145 131 131 145 130 130
145 130 130 144 130 130
171 154 154 171 154 154 171 154 154 170 153 153 170 153 153 170 153
153 170 153 153 169 152 152 169 152 152 169 152 152 169 152 152 168
152 152 168 151 151 158 131 50 159 128 16 155 124 16 145 116 15 133
107 14 119 95 12 103 83 11 85 68 9 66 53 7 44 35 5 28 22 3 26 21 3 26
21 3 61 53 39 164 148 148 164 148 148 164 147 147 163 147 147 163 147
147 163 147 147 163 146 146 162 146 146 162 146 146 162 146 146 162
146 146 161 145 145 161 145 145 161 145 145 161 145 145 160 144 144
160 144 144 160 144 144 160 144 144 159 143 143 159 143 143 159 143
143 158 143 143 158 142 142 158 142 142 158 142 142 157 142 142 157
141 141 157 141 141 157 141 141 156 141 141 156 141 141 156 140 140
156 140 140 155 140 140 155 140 140 155 139 139 155 139 139 154 139
139 154 139 139 154 138 138 153 138 138 153 138 138 139 131 122 54 86
25 47 94 10 52 103 11 53 106 11 54 107 11 52 104 11 50 100 10 47 94
10 44 87 9 39 78 8 34 67 7 27 54 6 20 39 4 14 28 3 13 26 3 47 53 36
149 134 134 148 134 134 148 133 133 148 133 133 148 133 133 147 133
133 147 132 132 147 132 132 147 132 132 146 132 132 146 131 131 146
131 131 145 131 131
172 155 155 172 154 154 171 154 154 171 154 154 171 154 154 171 154
154 170 153 153 170 153 153 170 153 153 170 153 153 169 152 152 169
152 152 169 152 152 160 141 117 139 112 14 137 110 14 128 103 13 117
94 12 103 82 11 87 69 9 69 55 7 49 39 5 29 24 3 26 21 3 26 21 3 43 37
21 148 133 131 165 149 149 165 148 148 165 148 148 164 148 148 164
148 148 164 147 147 163 147 147 163 147 147 163 147 147 163 146 146
162 146 146 162 146 146 162 146 146 162 146 146 161 145 145 161 145
145 161 145 145 161 145 145 160 144 144 160 144 144 160 144 144 160
144 144 159 143 143 159 143 143 159 143 143 159 143 143 158 143 143
158 142 142 158 142 142 158 142 142 157 142 142 157 141 141 157 141
141 157 141 141 156 141 141 156 140 140 156 140 140 155 140 140 155
140 140 155 140 140 155 139 139 154 139 139 154 139 139 154 139 139
139 130 122 46 69 23 37 73 8 41 82 9 42 84 9 42 83 9 40 80 8 37 74 8
34 67 7 29 57 6 23 46 5 17 34 4 14 27 3 30 40 20 48 53 36 133 121 118
150 135 135 149 134 134 149 134 134 149 134 134 149 134 134 148 134
134 148 133 133 148 133 133 148 133 133 147 133 133 147 132 132 147
132 132 147 132 132
172 155 155 172 155 155 172 155 155 172 155 155 171 154 154 171 154
154 171 154 154 171 154 154 170 153 153 170 153 153 170 153 153 170
153 153 169 153 153 163 146 135 123 100 30 115 92 12 108 87 11 97 78
10 84 67 9 68 54 7 49 40 5 31 25 4 26 21 3 26 21 3 26 21 3 61 53 40
166 149 149 166 149 149 165 149 149 165 149 149 165 149 149 165 148
148 164 148 148 164 148 148 164 148 148 164 147 147 163 147 147 163
147 147 163 147 147 163 146 146 162 146 146 162 146 146 162 146 146
162 146 146 161 145 145 161 145 145 161 145 145 161 145 145 160 144
144 160 144 144 160 144 144 160 144 144 159 144 144 159 143 143 159
143 143 159 143 143 158 143 143 158 142 142 158 142 142 158 142 142
157 142 142 157 141 141 157 141 141 157 141 141 156 141 141 156 141
141 156 140 140 156 140 140 155 140 140 155 140 140 155 139 139 155
139 139 138 127 122 122 117 106 41 60 22 27 53 6 28 55 6 27 53 6 25
49 5 21 42 5 17 34 4 14 28 3 13 26 3 31 40 20 134 123 120 151 136 136
151 136 136 151 136 136 150 135 135 150 135 135 150 135 135 150 135
135 149 134 134 149 134 134 149 134 134 149 134 134 148 134 134 148
133 133 148 133 133 148 133 133
173 156 156 173 155 155 172 155 155 172 155 155 172 155 155 172 155
155 172 154 154 171 154 154 171 154 154 171 154 154 171 154 154 170
153 153 170 153 153 170 153 153 161 144 135 98 81 27 83 66 9 74 59 8
61 49 7 45 36 5 30 24 3 26 21 3 26 21 3 26 21 3 44 37 21 149 134 132
167 150 150 166 150 150 166 150 150 166 149 149 166 149 149 165 149
149 165 149 149 165 148 148 165 148 148 164 148 148 164 148 148 164
148 148 164 147 147 163 147 147 163 147 147 163 147 147 163 146 146
162 146 146 162 146 146 162 146 146 162 146 146 161 145 145 161 145
145 161 145 145 161 145 145 160 144 144 160 144 144 160 144 144 160
144 144 159 144 144 159 143 143 159 143 143 159 143 143 158 143 143
158 142 142 158 142 142 158 142 142 157 142 142 157 142 142 157 141
141 157 141 141 156 141 141 156 141 141 156 140 140 156 140 140 155
140 140 155 140 140 155 140 140 137 125 122 120 112 105 50 57 37 50
57 37 49 56 37 49 55 37 48 54 37 48 54 37 118 110 104 135 123 121 152
137 137 152 137 137 152 137 137 152 136 136 151 136 136 151 136 136
151 136 136 151 136 136 150 135 135 150 135 135 150 135 135 150 135
135 149 135 135 149 134 134 149 134 134 149 134 134
173 156 156 173 156 156 173 156 156 173 156 156 172 155 155 172 155
155 172 155 155 172 155 155 172 154 154 171 154 154 171 154 154 171
154 154 171 154 154 170 153 153 170 153 153 157 141 135 82 70 43 61
51 23 35 28 4 28 22 3 26 21 3 26 21 3 44 37 22 133 119 114 150 135
133 167 151 151 167 151 151 167 150 150 167 150 150 166 150 150 166
150 150 166 149 149 166 149 149 166 149 149 165 149 149 165 149 149
165 148 148 165 148 148 164 148 148 164 148 148 164 147 147 164 147
147 163 147 147 163 147 147 163 147 147 163 146 146 162 146 146 162
146 146 162 146 146 162 145 145 161 145 145 161 145 145 161 145 145
161 145 145 160 144 144 160 144 144 160 144 144 160 144 144 159 144
144 159 143 143 159 143 143 159 143 143 158 143 143 158 142 142 158
142 142 158 142 142 157 142 142 157 142 142 157 141 141 157 141 141
157 141 141 156 141 141 156 140 140 156 140 140 156 140 140 155 140
140 155 140 140 155 139 139 155 139 139 154 139 139 154 139 139 154
139 139 154 138 138 153 138 138 153 138 138 153 138 138 153 137 137
152 137 137 152 137 137 152 137 137 152 137 137 151 136 136 151 136
136 151 136 136 151 136 136 151 136 136 150 135 135 150 135 135 150
135 135 150 135 135
174 157 157 174 156 156 173 156 156 173 156 156 173 156 156 173 156
156 172 155 155 172 155 155 172 155 155 172 155 155 172 154 154 171
154 154 171 154 154 171 154 154 171 154 154 170 153 153 170 153 153
152 136 134 134 120 115 134 120 115 133 120 115 133 119 115 151 136
133 168 152 152 168 151 151 168 151 151 168 151 151 168 151 151 167
151 151 167 150 150 167 150 150 167 150 150 166 150 150 166 150 150
166 149 149 166 149 149 165 149 149 165 149 149 165 148 148 165 148
148 164 148 148 164 148 148 164 148 148 164 147 147 163 147 147 163
147 147 163 147 147 163 147 147 162 146 146 162 146 146 162 146 146
162 146 146 162 145 145 161 145 145 161 145 145 161 145 145 161 145
145 160 144 144 160 144 144 160 144 144 160 144 144 159 144 144 159
143 143 159 143 143 159 143 143 158 143 143 158 142 142 158 142 142
158 142 142 157 142 142 157 142 142 157 141 141 157 141 141 157 141
141 156 141 141 156 141 141 156 140 140 156 140 140 155 140 140 155
140 140 155 139 139 155 139 139 154 139 139 154 139 139 154 139 139
154 138 138 154 138 138 153 138 138 153 138 138 153 138 138 153 137
137 152 137 137 152 137 137 152 137 137 152 137 137 151 136 136 151
136 136 151 136 136 151 136 136 151 136 136
174 157 157 174 157 157 174 157 157 174 156 156 173 156 156 173 156
156 173 156 156 173 155 155 172 155 155 172 155 155 172 155 155 172
155 155 172 154 154 171 154 154 171 154 154 171 154 154 171 154 154
170 153 153 170 153 153 170 153 153 170 153 153 169 153 153 169 152
152 169 152 152 169 152 152 169 152 152 168 151 151 168 151 151 168
151 151 168 151 151 167 151 151 167 150 150 167 150 150 167 150 150
166 150 150 166 150 150 166 149 149 166 149 149 165 149 149 165 149
149 165 149 149 165 148 148 165 148 148 164 148 148 164 148 148 164
147 147 164 147 147 163 147 147 163 147 147 163 147 147 163 146 146
162 146 146 162 146 146 162 146 146 162 146 146 161 145 145 161 145
145 161 145 145 161 145 145 161 145 145 160 144 144 160 144 144 160
144 144 160 144 144 159 143 143 159 143 143 159 143 143 159 143 143
158 143 143 158 142 142 158 142 142 158 142 142 157 142 142 157 142
142 157 141 141 157 141 141 157 141 141 156 141 141 156 141 141 156
140 140 156 140 140 155 140 140 155 140 140 155 140 140 155 139 139
155 139 139 154 139 139 154 139 139 154 138 138 154 138 138 153 138
138 153 138 138 153 138 138 153 137 137 152 137 137 152 137 137 152
137 137 152 137 137 152 136 136 151 136 136
175 157 157 174 157 157 174 157 157 174 157 157 174 156 156 174 156
156 173 156 156 173 156 156 173 156 156 173 155 155 172 155 155 172
155 155 172 155 155 172 155 155 171 154 154 171 154 154 171 154 154
171 154 154 171 154 154 170 153 153 170 153 153 170 153 153 170 153
153 169 153 153 169 152 152 169 152 152 169 152 152 169 152 152 168
151 151 168 151 151 168 151 151 168 151 151 167 151 151 167 150 150
167 150 150 167 150 150 166 150 150 166 150 150 166 149 149 166 149
149 166 149 149 165 149 149 165 149 149 165 148 148 165 148 148 164
148 148 164 148 148 164 148 148 164 147 147 163 147 147 163 147 147
163 147 147 163 147 147 163 146 146 162 146 146 162 146 146 162 146
146 162 145 145 161 145 145 161 145 145 161 145 145 161 145 145 160
144 144 160 144 144 160 144 144 160 144 144 160 144 144 159 143 143
159 143 143 159 143 143 159 143 143 158 143 143 158 142 142 158 142
142 158 142 142 157 142 142 157 142 142 157 141 141 157 141 141 157
141 141 156 141 141 156 141 141 156 140 140 156 140 140 155 140 140
155 140 140 155 140 140 155 139 139 155 139 139 154 139 139 154 139
139 154 139 139 154 138 138 153 138 138 153 138 138 153 138 138 153
138 138 153 137 137 152 137 137 152 137 137
175 158 158 175 157 157 175 157 157 174 157 157 174 157 157 174 157
157 174 156 156 173 156 156 173 156 156 173 156 156 173 156 156 173
155 155 172 155 155 172 155 155 172 155 155 172 155 155 171 154 154
171 154 154 171 154 154 171 154 154 171 154 154 170 153 153 170 153
153 170 153 153 170 153 153 169 153 153 169 152 152 169 152 152 169
152 152 168 152 152 168 151 151 168 151 151 168 151 151 168 151 151
167 151 151 167 150 150 167 150 150 167 150 150 166 150 150 166 150
150 166 149 149 166 149 149 166 149 149 165 149 149 165 149 149 165
148 148 165 148 148 164 148 148 164 148 148 164 148 148 164 147 147
164 147 147 163 147 147 163 147 147 163 147 147 163 146 146 162 146
146 162 146 146 162 146 146 162 146 146 161 145 145 161 145 145 161
145 145 161 145 145 161 145 145 160 144 144 160 144 144 160 144 144
160 144 144 159 144 144 159 143 143 159 143 143 159 143 143 159 143
143 158 143 143 158 142 142 158 142 142 158 142 142 157 142 142 157
142 142 157 141 141 157 141 141 157 141 141 156 141 141 156 141 141
156 140 140 156 140 140 155 140 140 155 140 140 155 140 140 155 139
139 155 139 139 154 139 139 154 139 139 154 139 139 154 138 138 154
138 138 153 138 138 153 138 138 153 138 138
